!!!!SEGMENT: pl-sa--480-a-viii-120--003_anonim--zawitaj-corko.krn
!!!cenid: 17xx:1713
!!!COM: Anonim
!!!COM-rismid: pe30004985
!!!CDT:
!!!CNT:
!!!OTL: Zawitaj córko
!!!PDT:
!!!AGN: Sacred
!!!SMS-siglum: PL-SA
!!!SMS-shelfmark: 480/A VIII 120
!!!SMS-shelfwork: 003 W
!!!SMS-variant:
!!!SMS-altvar:
!!!NIFC-rismid: 1001041377
!!!URL-scan: http://bc.bdsandomierz.pl/dlibra/publication/1206/edition/1165/content
!!!ONB-nifc: UWAGA: utwory w zbiorze: 1. Quem terra pontus sidera, 2. Witaj krynico, 3. Zawitaj córko, 4. Zdrowaś Maryja śpiewajmy
!!!OMD:
!!!AIN: 1 organ 1 soprn 2 violn
!!!key: A
**kern	**kern	**kern	**kern	**text
*part4	*part3	*part2	*part1	*part1
*staff4	*staff3	*staff2	*staff1	*staff1
*I"Baſso	*I"Violino Secundo_	*I"Violino Primo	*I"Canto Primo.	*
*I'b	*I'vl 2	*I'vl 1	*I'S 1	*
*Iorgan	*Ivioln	*Ivioln	*Isoprn	*
*ICklav	*ICstr	*ICstr	*ICvox	*
*clefF4	*clefG2	*clefG2	*clefC1	*
*	*ok[c#g#f#]	*ok[f#g#c#]	*	*
*k[f#c#g#]	*k[f#c#g#]	*k[f#c#g#]	*k[f#c#g#]	*
*A:	*A:	*A:	*A:	*
*M2/2	*M2/2	*M2/2	*M2/2	*
*met(c|)	*met(c|)	*met(c|)	*met(c|)	*
=1	=1	=1	=1	=1
*	*	*	*2\right	*
!	!	!LO:TX:a:t=Do.	!	!
!LO:TX:a:t=P:problem=brak głosu w źródle	!	!LO:TX:b:t=Zawitay Corko	!	!
1ryy	2c#/	2a/	2a\	Za-
.	4B/	4g#/	4g#\	-wi-
.	4c#/	4a/	4a\	-tay
=2	=2	=2	=2	=2
1ryy	2d/	2f#/	2f#/	Cor-
.	2d/	2f#/	2f#/	-ko
=3	=3	=3	=3	=3
!	!	!LO:TX:a:i:t=proste nuty	!LO:TX:a:i:t=proste nuty	!
1ryy	4d/	4f#/	4f#/	Oy-
.	4d/	4b/	4b/	-ca
.	4d/	4b/	4b/	przed-
.	4c#/	4a/	4a/	-wiecz-
=4	=4	=4	=4	=4
1ryy	2B/	2g#/	2g#/	-ne-
.	2c#/	2a/	2a/	-go
=5	=5	=5	=5	=5
*	*	*2\right	*	*
1ryy	2g#/	2b\	2b\	Prze-
.	4g#/	4b\	4b\	-dziw-
.	4a/	4cc#\	4cc#\	-na
=6	=6	=6	=6	=6
1ryy	4b/	4dd\	4dd\	Mat-
.	4a/	4cc#\	4cc#\	.
.	2g#/	2b\	2b\	-ko
=7	=7	=7	=7	=7
!	!	!	!LO:SIC:v:s=4b\	!
1ryy	4g#/	4b\	4a\	sło-
!	!	!	!LO:SIC:v:s=4cc#\	!
.	4a/	4cc#\	4b\	-wa
.	4c#/	4a/	4a\	wice-
.	4B/	4g#/	4g#\	-lo-
!	!	!LO:LB:g=original	!LO:LB:g=original	!
=8	=8	=8	=8	=8
1ryy	2B/	2g#/	2g#/	-ne-
.	2c#/	2a/	2a/	-go
=9	=9	=9	=9	=9
1ryy	2c#/	2a/	2a\	O-
.	4c#/	4a/	4a\	-blu-
.	4c#/	4a/	4a\	-bie-
=10	=10	=10	=10	=10
*	*2\right	*	*	*
1ryy	2dd;\	2ff#;\	2ff#\	-ni-
.	8cc#\L	8ee\L	8ee\L	.
.	8b\	8dd\	8dd\	.
.	8a\	8cc#\	8cc#\	.
.	8e\J 8g#	8b\J	8b\J	.
=11	=11	=11	=11	=11
1ryy	8c#/L	8a\L	8a\L	.
.	8d/	8b\	8b\	.
.	8c#/	8a\	8a\	.
.	8d/J	8b\J	8b\J	.
.	2d/	2b/	2b;\	-co
!	!LO:LB:g=original	!	!	!
=12	=12	=12	=12	=12
1ryy	4b/	4dd\	4dd\	O-
.	4a/	4cc#\	4cc#\	-blu-
.	4g#/	4b\	4b\	-nień-
.	4f#/	4a\	4a\	-ca
=13	=13	=13	=13	=13
1ryy	2g#/	2b\	2b\	swe-
.	2g#/	2b\	2b\	-go
=14	=14	=14	=14	=14
1ryy	2a/	2cc#\	2cc#\	Du-
.	4d/	4b\	4b\	-cha
.	4c#/	4a/	4a\	Swię-
=15	=15	=15	=15	=15
1ryy	2B/	2g#/	2g#\	-te-
.	2c#/	2a/	2a\	-go.
==	==	==	==	==
*-	*-	*-	*-	*-
!!!system-decoration: s1[(s2,s3)]s4
!!!ENC: Berenika Jozajtis
!!!END: 2021-01-25
!!!ENC: Marta Chmielewska
!!!END: 2022-01-11
